X:617
M:C|
L:1/8
K:F
c|~f2 af ffaf|~f2 af gddg|~f2 af gfaf|gefd cAA:|
|:c|AFcF A2 Fc|dfcA AGGc|1 AFcF A2 Fc|dfcf AFF:|2

